communes/3835.svg

<?xml version="1.0" encoding="UTF-8"?>
<!DOCTYPE svg  PUBLIC '-//W3C//DTD SVG 1.1//EN'  'http://www.w3.org/Graphics/SVG/1.1/DTD/svg11.dtd'>
<svg width="438" height="480" viewBox="21 15 438 480" xmlns="http://www.w3.org/2000/svg">
<metadata>
<rdf:RDF xmlns:dc="http://purl.org/dc/elements/1.1/" xmlns:rdf="http://www.w3.org/1999/02/22-rdf-syntax-ns#">
<rdf:Description dc:date="2006-11-02" dc:format="image/svg+xml" dc:language="de" dc:title="Wappen San Vittore (CH-GR)">
<dc:creator rdf:resource="http://de.wikipedia.org/wiki/Benutzer:Bernina"/>
</rdf:Description>
</rdf:RDF>
</metadata>
<title>Wappen San Vittore (CH-GR)</title>
<defs>
<clipPath id="a">
<path d="m360 4140a3240 3240 0 0 0 6480 0v-3870h-6480v3870z"/>
</clipPath>
<style type="text/css"><![CDATA[
  .Rand2 { stroke: #202020; stroke-width:30; }
  .Rand6 { stroke: #202020; stroke-width:90; }
  .Schwarz4 { stroke: #000000; stroke-width:60; stroke-linecap:round; }
  .Schwarz3 { stroke: #000000; stroke-width:45; }
  .Rot { fill: #ff0000; }
  .Gold { fill: #ffef00; }
  .Silber { fill: #ffffff; }
  ]]></style>
</defs>
<g transform="scale(.066667)" fill="none" fill-rule="evenodd" stroke-miterlimit="10" stroke-width="10">
<g clip-path="url(#a)">
<path class="Rot" d="m-225-225v7650h7650v-7650h-7650z"/>
<path class="Silber Rand2" d="m2160 3510 180 540c30-180 60-360 120-525s150-315 270-465 270-300 442-420c173-120 368-210 563-300l-225-90c-75-15-150-30-255-15s-240 60-413 173c-172 112-382 292-502 442s-150 270-165 375-15 195-15 285z"/>
<path class="Silber Rand2" d="m3150 2250c180 30 360 60 525 135s315 195 480 330 345 285 480 345 225 30 315-8c90-37 180-82 270-127-120-45-240-90-435-233-195-142-465-382-675-487s-360-75-510-45l-450 90z"/>
<path class="Silber Rand2" d="m5310 2430c-30 120-60 240-98 330-37 90-82 150-157 202-75 53-180 98-285 143 105 15 210 30 330 7 120-22 255-82 352-157 98-75 158-165 173-255s-15-180-45-270"/>
<g transform="rotate(-45 3600,3600) translate(0,-720)">
<path class="Silber Rand2" d="m3330 2205 90 4770 180 360 180-360 90-4770h-540z"/>
<path class="Gold Rand2" d="m3329 2206a270.5 270.5 0 0 0 541 0"/>
<path class="Gold Rand2" d="m3330 2205 90-270-1-1079c-59.67-90.33-119.33-180.67-89.17-255.83 30.17-75.17 150.17-135.17 210.17-180.17s60-75 60-105c0 30 0 60 60 105s180 105 209.83 179.83c29.84 74.84-30.5 164.5-90.83 254.17l1 1081 90 270"/>
<path class="Gold Rand2" d="m2790 2205h1620l90 90 180-180-180-180-90 90-630-90h-360l-630 90-90-90-180 180 180 180 90-90z"/>
<path class="Schwarz3" d="m3510 1035h180"/>
<path class="Schwarz3" d="m3510 1305h180"/>
<path class="Schwarz3" d="m3510 1575h180"/>
<path class="Schwarz3" d="m3510 1845h180"/>
</g>
<path class="Gold Rand2" d="m1338 5682a180 180 0 0 0 307.28 127.28l0.72 0.72 3754-3756 754.57 754.57a180 180 0 0 0 315.43-118.57 180 180 0 0 0-61.43-135.43l-754.57-754.57 754.57-754.57a180 180 0 0 0 61.43-135.43 180 180 0 0 0-315.43-118.57l-754.57 754.57-754.57-754.57a180 180 0 0 0-315.43 118.57 180 180 0 0 0 61.43 135.43l754.57 754.57-3756 3754 0.72 0.72a180 180 0 0 0-52.72 127.28z"/>
<path class="Schwarz4" d="m5400 1530v540"/>
<path class="Schwarz4" d="m5130 1800h540"/>
<path class="Silber Rand2" d="m5310 2070-180 540 270 90 270-90-180-540h-180z"/>
<path class="Silber Rand2" d="m2160 3510c0 240 0 480 75 750s225 570 420 780 435 330 675 375 480 15 675-45 345-150 495-240h-220.02c-126.47 0-215.48-4.18-248.09-44.93-32.6-40.76-7.39-116.33 34.77-221.72l73.34-183.35c-210 120-420 240-645 240s-465-120-645-270-300-330-375-450-105-180-150-285-105-255-165-405z"/>
<path class="Rand2" d="m5400 2250v450"/>
</g>
<path class="Rand6" d="m360 4140a3240 3240 0 0 0 6480 0v-3870h-6480v3870z"/>
</g>
</svg>

<?xml version="1.0" encoding="iso-8859-1"?>
<!DOCTYPE svg PUBLIC "-//W3C//DTD SVG 1.1//EN" "http://www.w3.org/Graphics/SVG/1.1/DTD/svg11.dtd">
<!-- Auto-generated by fig2svg tool
     Date: Thu Nov  2 14:32:55 2006 -->
<svg xmlns="http://www.w3.org/2000/svg"
     width="438" height="480" viewBox="21 15 438 480">
<metadata>
<rdf:RDF xmlns:rdf="http://www.w3.org/1999/02/22-rdf-syntax-ns#"
         xmlns:dc="http://purl.org/dc/elements/1.1/">
<rdf:Description
 dc:title="Wappen San Vittore (CH-GR)"
 dc:date="2006-11-02"
 dc:format="image/svg+xml"
 dc:language="de">
<dc:creator rdf:resource="http://de.wikipedia.org/wiki/Benutzer:Bernina" />
</rdf:Description>
</rdf:RDF>
</metadata>
<title>
Wappen San Vittore (CH-GR)
</title>
<defs>
<clipPath id="clippath">
<path d="M360,4140 A3240,3240 0.0 0 0 6840,4140 L6840,270 L360,270 L360,4140 Z" />
</clipPath>
<style type="text/css">
  <![CDATA[
  .Rand2 { stroke: #202020; stroke-width:30; }
  .Rand6 { stroke: #202020; stroke-width:90; }
  .Schwarz4 { stroke: #000000; stroke-width:60; stroke-linecap:round; }
  .Schwarz3 { stroke: #000000; stroke-width:45; }
  .Rot { fill: #ff0000; }
  .Gold { fill: #ffef00; }
  .Silber { fill: #ffffff; }
  ]]>
</style>
</defs>
<g stroke="none" stroke-miterlimit="10" stroke-width="10"
   stroke-linecap="butt" stroke-linejoin="miter"
   fill="none" fill-rule="evenodd" transform="scale(0.066667)">
<g clip-path="url(#clippath)">
<path id="feld-1" class="Rot"
      d="M-225,-225 L-225,7425 L7425,7425 L7425,-225 L-225,-225 Z" />
<path id="tuch1-1" class="Silber Rand2"
      d="M2160,3510 L2340,4050 C2370,3870 2400,3690 2460,3525
         C2520,3360 2610,3210 2730,3060 C2850,2910 3000,2760 3172,2640
         C3345,2520 3540,2430 3735,2340 L3510,2250
         C3435,2235 3360,2220 3255,2235 C3150,2250 3015,2295 2842,2408
         C2670,2520 2460,2700 2340,2850 C2220,3000 2190,3120 2175,3225
         C2160,3330 2160,3420 2160,3510 Z" />
<path id="tuch2-1" class="Silber Rand2"
      d="M3150,2250 C3330,2280 3510,2310 3675,2385
         C3840,2460 3990,2580 4155,2715 C4320,2850 4500,3000 4635,3060
         C4770,3120 4860,3090 4950,3052 C5040,3015 5130,2970 5220,2925
         C5100,2880 4980,2835 4785,2692 C4590,2550 4320,2310 4110,2205
         C3900,2100 3750,2130 3600,2160 C3450,2190 3300,2220 3150,2250 Z" />
<path id="tuch3-1" class="Silber Rand2"
      d="M5310,2430 C5280,2550 5250,2670 5212,2760
         C5175,2850 5130,2910 5055,2962 C4980,3015 4875,3060 4770,3105
         C4875,3120 4980,3135 5100,3112 C5220,3090 5355,3030 5452,2955
         C5550,2880 5610,2790 5625,2700 C5640,2610 5610,2520 5580,2430" />
<g transform="rotate(-45 3600,3600) translate(0,-720)">
<path id="schwert-1" class="Silber Rand2"
      d="M3330,2205 L3420,6975 L3600,7335 L3780,6975 L3870,2205 L3330,2205 Z" />
<path id="griff1-1" class="Gold Rand2"
      d="M3329,2206 A270.50,270.50 0.0 0 0 3870,2206" />
<path id="griff1-2" class="Gold Rand2"
      d="M3330,2205 L3420,1935 L3419,856
         C3359.33,765.67 3299.67,675.33 3329.83,600.17
         C3360,525 3480,465 3540,420 C3600,375 3600,345 3600,315
         C3600,345 3600,375 3660,420 C3720,465 3840,525 3869.83,599.83
         C3899.67,674.67 3839.33,764.33 3779,854 L3780,1935 L3870,2205" />
<path id="griff2-1" class="Gold Rand2"
      d="M2790,2205 L4410,2205 L4500,2295 L4680,2115 L4500,1935 L4410,2025
         L3780,1935 L3420,1935 L2790,2025 L2700,1935 L2520,2115 L2700,2295
         L2790,2205 Z" />
<path id="griff-linie-1" class="Schwarz3" d="M3510,1035 L3690,1035" />
<path id="griff-linie-2" class="Schwarz3" d="M3510,1305 L3690,1305" />
<path id="griff-linie-3" class="Schwarz3" d="M3510,1575 L3690,1575" />
<path id="griff-linie-4" class="Schwarz3" d="M3510,1845 L3690,1845" />
</g>
<path id="kreuz-1" class="Gold Rand2"
      d="M1338,5682 A180,180 0.0 0 0 1645.28,5809.28 L1646,5810 L5400,2054
         L6154.57,2808.57 A180,180 0.0 0 0 6470,2690
         A180,180 0.0 0 0 6408.57,2554.57 L5654,1800 L6408.57,1045.43
         A180,180 0.0 0 0 6470,910 A180,180 0.0 0 0 6154.57,791.43
         L5400,1546 L4645.43,791.43 A180,180 0.0 0 0 4330,910
         A180,180 0.0 0 0 4391.43,1045.43 L5146,1800 L1390,5554
         L1390.72,5554.72 A180,180 0.0 0 0 1338,5682 Z" />
<path id="kreuz-linie-1" class="Schwarz4" d="M5400,1530 L5400,2070" />
<path id="kreuz-linie-2" class="Schwarz4" d="M5130,1800 L5670,1800" />
<path id="tuch4-1" class="Silber Rand2"
      d="M5310,2070 L5130,2610 L5400,2700 L5670,2610 L5490,2070 L5310,2070 Z" />
<path id="tuch4-2" class="Silber Rand2"
      d="M2160,3510 C2160,3750 2160,3990 2235,4260
         C2310,4530 2460,4830 2655,5040 C2850,5250 3090,5370 3330,5415
         C3570,5460 3810,5430 4005,5370 C4200,5310 4350,5220 4500,5130
         C4500,5130 4406.46,5130 4279.98,5130
         C4153.51,5130 4064.50,5125.82 4031.89,5085.07
         C3999.29,5044.31 4024.50,4968.74 4066.66,4863.35
         C4108.82,4757.95 4140,4680 4140,4680 C3930,4800 3720,4920 3495,4920
         C3270,4920 3030,4800 2850,4650 C2670,4500 2550,4320 2475,4200
         C2400,4080 2370,4020 2325,3915 C2280,3810 2220,3660 2160,3510 Z" />
<path id="tuch-linie-1" class="Rand2" d="M5400,2250 L5400,2700" />
</g>
<path id="clip-boundary" class="Rand6"
      d="M360,4140 A3240,3240 0.0 0 0 6840,4140 L6840,270 L360,270 L360,4140 Z" />
</g>
</svg>
